X:1
T:Title
%%score { ( 1 3 ) | ( 2 4 ) }
L:1/8
M:6/4
K:Ab
V:1 treble nm="Grand Piano"
V:3 treble 
V:2 bass 
V:4 bass 
V:1
 z6 z4[Q:1/4=114] [CE]2 | [CE]2 [DF]2 [CE]2 [CE]2 [CA]2 [CA]2 | B2 A2 B2 c4 c2 | %3
 e2 d2 c2 c2 B2 A2 | [=DA]2 [DG]2 [DA]2 [EB]4 [_DE]2 | [CE]2 [CF]2 [CE]2 [CE]2 [CA]2 [CA]2 | %6
 B2 A2 B2 c4 c2 | e2 d2 c2 [Fc]2 [FB]2 [FA]2 |[M:5/4] G2 c2 B2 [CA]4 |[M:1/4] [CA]2 | %10
[M:6/4] .[DB]12 | [CA]6[K:bass][K:treble] z6 | .[Gd]12 |[M:5/4] [Ec]2- [Ec]2- [Ec]6 |[M:1/4] cd | %15
[M:6/4] .e12 | [FB]6 .[DF]6 | .[EG]12 |[M:5/4] [CA]2- [CA]2- [CA]6 |] %19
V:2
 z6 z4 [A,,A,]2 | [A,,A,]2 [A,,A,]2 [A,,A,]2 [A,,A,]2 [A,,E,]2 [A,,E,]2 | %2
 [E,G,E]2 [E,F,E]2 [E,G,E]2 [A,E]4 [A,E]2 | [A,CE]2 [G,B,E]2 [A,E]2 [E,A,E]2 [E,G,D]2 [F,A,C]2 | %4
 [B,,F,]2 [B,,B,]2 [B,,A,]2 [E,G,]4 [E,G,]2 | %5
 [A,,A,]2 [A,,A,]2 [A,,A,]2 [A,,A,]2 [A,,E,]2 [A,,E,]2 | [E,G,E]2 [E,F,E]2 [E,G,E]2 [A,E]4 [A,E]2 | %7
 [A,CE]2 [A,B,E]2 [A,E]2 [D,A,]2 [D,D]2 [D,D]2 |[M:5/4] [E,B,E]2 [E,A,E]2 [E,G,D]2 [A,,A,]4 | %9
[M:1/4] [A,,A,]2 |[M:6/4] [E,G,]2 E,2 E,2 E,2 [E,A,E]2 [E,G,D]2 | [A,,A,]2 A,,2 A,,2 A,,4 A,2 | %12
 [E,B,]2 E,2 E,2 E,2 [E,C]2 [E,B,]2 |[M:5/4] A,2 A,2 A,2 A,4 |[M:1/4] [A,E]2 | %15
[M:6/4][K:treble] .A12 | [D,D]2 D,2 D,2 D,2 D,2 D,2 | E,4 E,2 E,2 [E,A,E]2 [E,G,D]2 | %18
[M:5/4] [A,,A,]2- [A,,A,]2- [A,,A,]6 |] %19
V:3
 x12 | x12 | x12 | x12 | x12 | x12 | x12 | x12 |[M:5/4] x10 |[M:1/4] x2 | %10
[M:6/4] z2 G,2 G,2 G,2 c2 B2 | z2[K:bass] E,2 E,2[K:treble] [A,CE]4 [CE]2 | %12
 z2 B,2 B,2 B,2 [Ge]2 [Gd]2 |[M:5/4] x10 |[M:1/4] x2 |[M:6/4] z2 C2 C2 C2 d2 c2 | %16
 z2 D2 D2 B,2 B,2 [B,FA]2 | B,4 B,2 B,2 c2 B2 |[M:5/4] x10 |] %19
V:4
 x12 | x12 | x12 | x12 | x12 | x12 | x12 | x12 |[M:5/4] x10 |[M:1/4] x2 |[M:6/4] x12 | x12 | x12 | %13
[M:5/4] x10 |[M:1/4] z B, |[M:6/4][K:treble] [A,C]2 A,2 A,2 A,2 [A,FA]2 [A,EA]2 | x12 | x12 | %18
[M:5/4] x10 |] %19

